X: 3419
T: Bessie Millie's Sixpence
R: reel
M: 4/4
K: Aminor
ABcd eA A2|gAaA e2 AB|cBAG EGEC|GEDC B,DCB,|
A,B,CD EA,A,A,|GA,AG E3 E|ABcA BedB|cABG A2 EG:|
|:cBAG AEAB|cedc B2 ed|cABG ABce|g2 gd B2 CB,|
A,EEE B,G, G,2|EcBG A3 E|ABcA BedB|cABG A2 ed:|

